X: 6523
T: Cat's Meow, The
R: jig
M: 6/8
K: Dmajor
|:D|FAd f2 f|afe dBA|B2 B BAB|dAF E2 E|
FAd fef|afe dBA|B/c/de fdB|AFE D2:|
|:e|fdB A2 A|DFA def|g2 g ged|ced cBA|
fdB A2A|DFA def|gec age|edc d2:|
|:A|FAd a2 a|agf agf|Ace g2 g|gfe gfe|
fef gfg|a2 a bag|faa gec|edc d2:|

